src/assets/icons/security.svg

<svg width="100%" height="100%" viewBox="0 0 142 142" fill="none" xmlns="http://www.w3.org/2000/svg">
<path d="M71 142C110.212 142 142 110.212 142 71C142 31.7878 110.212 0 71 0C31.7878 0 0 31.7878 0 71C0 110.212 31.7878 142 71 142Z" fill="#7198E7"/>
<path d="M71 136C106.899 136 136 106.899 136 71C136 35.1015 106.899 6 71 6C35.1015 6 6 35.1015 6 71C6 106.899 35.1015 136 71 136Z" fill="url(#paint0_radial_1890_7428)"/>
<path d="M80.6545 63.0614C76.2833 62.5437 71.9766 61.5796 67.8019 60.184C64.3442 59.0297 60.9922 57.5799 57.7832 55.8507V72.3174C65.4691 72.1795 73.1256 71.3294 80.6545 69.778V63.0614Z" fill="#5070D4"/>
<path d="M53.9868 55.8334C50.774 57.5611 47.4194 59.0108 43.9595 60.1667C39.7938 61.5664 35.4959 62.5363 31.1328 63.0614V69.8474C38.6681 71.364 46.3272 72.1821 54.0128 72.2914L53.9868 55.8334Z" fill="#5070D4"/>
<path d="M31.1328 110.381C33.7489 113.39 36.6196 116.168 39.7128 118.684C44.1073 122.247 48.9072 125.278 54.0128 127.715V76.096C46.3302 75.9884 38.6727 75.1908 31.1328 73.7126V110.381Z" fill="#5070D4"/>
<path d="M57.7832 127.715C62.8858 125.27 67.6827 122.233 72.0745 118.667C75.1678 116.151 78.0384 113.373 80.6545 110.364V73.6C73.1208 75.111 65.4658 75.9377 57.7832 76.07V127.715Z" fill="#5070D4"/>
<path d="M127.619 50.8067H115.919V39.1067H108.986V50.8067H97.2861V57.74H108.986V69.44H115.919V57.74H127.619V50.8067Z" fill="#5070D4"/>
<path d="M89.096 114.541V54.6373C82.9029 54.3709 76.7772 53.242 70.896 51.2833C65.5843 49.5169 60.5264 47.0636 55.8507 43.986C51.1708 47.0617 46.1102 49.5148 40.7967 51.2833C34.9155 53.242 28.7898 54.3709 22.5967 54.6373V114.437C28.9579 121.545 36.8046 127.167 45.5807 130.904C42.1825 128.88 38.9355 126.612 35.8653 124.118C31.9907 120.965 28.4189 117.457 25.1967 113.64V57.0813C30.7979 56.6472 36.3249 55.5295 41.6547 53.7533C46.6429 52.0894 51.419 49.8467 55.8853 47.0713C60.356 49.8501 65.1382 52.0929 70.1333 53.7533C75.4408 55.524 80.9443 56.6416 86.522 57.0813V113.605C83.2998 117.422 79.728 120.93 75.8533 124.083C70.5979 128.348 64.841 131.954 58.7107 134.821C60.184 135.099 61.666 135.333 63.174 135.515C68.2508 132.863 73.0475 129.707 77.4913 126.094C81.7363 122.641 85.624 118.771 89.096 114.541Z" fill="#5070D4"/>
<path d="M83.316 42.8853H90.2493V32.4853H100.649V25.552H90.2493V15.152H83.316V25.552H72.916V32.4853H83.316V42.8853Z" fill="#5070D4"/>
<defs>
<radialGradient id="paint0_radial_1890_7428" cx="0" cy="0" r="1" gradientUnits="userSpaceOnUse" gradientTransform="translate(71 71) rotate(90) scale(67.5 82.5462)">
<stop stop-color="white"/>
<stop offset="1" stop-color="#A7D3F2"/>
</radialGradient>
</defs>
</svg>

<svg width="130px" height="130px" viewBox="0 0 142 142" fill="none" xmlns="http://www.w3.org/2000/svg"><path d="M71 142c39.212 0 71-31.788 71-71S110.212 0 71 0 0 31.788 0 71s31.788 71 71 71Z" fill="#7198E7"/><path d="M71 136c35.899 0 65-29.101 65-65 0-35.898-29.101-65-65-65C35.102 6 6 35.102 6 71c0 35.899 29.102 65 65 65Z" fill="url(#a)"/><path d="M80.654 63.061a64.443 64.443 0 0 1-12.852-2.877 63.524 63.524 0 0 1-10.019-4.333v16.466a124.381 124.381 0 0 0 22.871-2.539v-6.717ZM53.987 55.833a63.97 63.97 0 0 1-10.028 4.334 64.45 64.45 0 0 1-12.826 2.894v6.786a124.966 124.966 0 0 0 22.88 2.444l-.026-16.458ZM31.133 110.381a69.392 69.392 0 0 0 8.58 8.303 71.847 71.847 0 0 0 14.3 9.031V76.096a128.263 128.263 0 0 1-22.88-2.383v36.668ZM57.783 127.715a72.098 72.098 0 0 0 14.291-9.048 69.385 69.385 0 0 0 8.58-8.303V73.6a127.466 127.466 0 0 1-22.87 2.47v51.645ZM127.619 50.807h-11.7v-11.7h-6.933v11.7h-11.7v6.933h11.7v11.7h6.933v-11.7h11.7v-6.933Z" fill="#5070D4"/><path d="M89.096 114.541V54.637a66.666 66.666 0 0 1-18.2-3.354 64.23 64.23 0 0 1-15.045-7.297 64.493 64.493 0 0 1-15.054 7.297 66.666 66.666 0 0 1-18.2 3.354v59.8a65.04 65.04 0 0 0 22.984 16.467 81.786 81.786 0 0 1-9.716-6.786 80.246 80.246 0 0 1-10.668-10.478V57.081a68.892 68.892 0 0 0 16.458-3.328 67.324 67.324 0 0 0 14.23-6.682 67.062 67.062 0 0 0 14.248 6.682 68.893 68.893 0 0 0 16.389 3.328v56.524a80.24 80.24 0 0 1-10.669 10.478 83.01 83.01 0 0 1-17.142 10.738c1.473.278 2.955.512 4.463.694a85.303 85.303 0 0 0 14.317-9.421 81.755 81.755 0 0 0 11.605-11.553ZM83.316 42.885h6.933v-10.4h10.4v-6.933h-10.4v-10.4h-6.933v10.4h-10.4v6.933h10.4v10.4Z" fill="#5070D4"/><defs><radialGradient id="a" cx="0" cy="0" r="1" gradientUnits="userSpaceOnUse" gradientTransform="matrix(0 67.5 -82.5462 0 71 71)"><stop stop-color="#fff"/><stop offset="1" stop-color="#A7D3F2"/></radialGradient></defs></svg>
